X:1
T:The Redeemer Is Come
T:The Redeemer Is Come
T:F. D. Jacobs
T:Mary Frances Yorke, 1897
T:Public Domain Courtesy of the Cyber Hymnal™
T:Public Domain Courtesy of the Cyber Hymnal™
C:F. D. Jacobs
Z:Public Domain
Z:Courtesy of the Cyber Hymnal™
%%score ( 1 2 ) ( 3 4 )
L:1/8
Q:1/4=105
M:9/8
K:A
V:1 treble 
V:2 treble 
V:3 bass 
V:4 bass 
V:1
 ([CE][^B,^D])[CE] [Ec]3 [CA]3 | ([CE][^B,^D])[CE] [=DF]3 [CE]3 | [CE]2 [EA] [DG]3 [DG]3 | %3
w: 1.~He * has come, the|world’s * Re- deem- er,|Pre- cious gift of|
w: 2.~Let * us give Him|glad- * ly wel- come|To our hearts and|
w: 3.~In * His hands are|won- * drous trea- sures,|Which no o- ther|
 (GA)[EB] [EA]3- [EA]2 z | ([CE][^B,^D])[CE] [Ec]3 [CA]3 | ([CE][^B,^D])[CE] [=DF]3 [CE]3 | %6
w: Heaven * to earth; *|Shout * a- loud the|joy- * ful tid- ings|
w: homes * to- day; *|He * for sin has|full * for- give- ness|
w: can * bes- tow; *|Heal- * ing for the|bro- * ken- heart- ed,|
 [CE]2 [Ec] [EB]3 [FA]3 | ([EG][FA])[^DF] E3- E2 z ||[M:4/4]"^Refrain" [Ed]4 [EB]4 | [Ec]4 [EA]4 | %10
w: Of the dear Re-|deem- * er’s birth. *|Praise Him!|praise Him!|
w: As we pen- i-|tent- * ly pray. *|||
w: Sweet- est com- fort|we * can know. *|||
 [EA]2 [EA]2 [EG]>[EA] [Ed]>[Ec] | [Ec]4 [EB]4 | [Ed]4 [EB]4 | [Ee]4 A4 | %14
w: Shout a- loud the joy- ful|tid- ings;|Praise Him!|praise Him!|
w: ||||
w: ||||
 [FB]2 [DF]2 [CE]>[Fd] [Ec]>[DB] | [CA]6 z2 |] %16
w: Christ our Sav- ior now is|here.|
w: ||
w: ||
V:2
 x9 | x9 | x9 | E2 x7 | x9 | x9 | x9 | x3 E3- E2 x ||[M:4/4] x8 | x8 | x8 | x8 | x8 | x4 (C2 F2) | %14
 x8 | x8 |] %16
V:3
 [A,,A,]2 [A,,A,] [A,,A,]3 [A,,A,]3 | [A,,A,]2 [A,,A,] [A,,A,]3 [A,,A,]3 | %2
w: ~ ~ ~ ~|~ ~ ~ ~|
 [A,,A,]2 [A,,C] [E,B,]3 [E,B,]3 | (B,C)[E,D] [A,,C]3- [A,,C]2 z | %4
w: ~ ~ ~ ~|~ * ~ ~ *|
 [A,,A,]2 [A,,A,] [A,,A,]3 [A,,A,]3 | [A,,A,]2 [A,,A,] [A,,A,]3 [A,,A,]3 | A,2 A, [G,B,]3 [A,C]3 | %7
w: ~ ~ ~ ~|~ ~ ~ ~|~ ~ ~ ~|
 B,2 [B,,A,] [E,G,]3- [E,G,]2 z ||[M:4/4] [E,G,]2 [E,G,]2 [E,G,]2 [E,G,]2 | A,2 A,2 [A,C]2 [A,C]2 | %10
w: ~ ~ ~ *|Praise Him! praise Him!|Praise Him! praise Him!|
 [A,C]2 [A,C]2 [B,D]>[A,C] [G,B,]>A, | [E,A,]4 [E,G,]4 | [E,G,]2 [E,G,]2 [E,G,]2 [E,G,]2 | %13
w: ~ ~ ~ ~ ~ ~|~ ~|Praise Him! praise Him!|
 [C,A,]2 [C,A,]2 [F,A,]2 [F,C]2 | [D,D]2 [D,A,]2 [E,A,]>[E,A,] [E,A,]>E, | [A,,E,]6 z2 |] %16
w: Praise Him! praise Him!|||
V:4
 x9 | x9 | x9 | E,2 x7 | x9 | x9 | A,2 A, x6 | B,2 x7 ||[M:4/4] x8 | A,2 A,2 x4 | x15/2 A,/ | x8 | %12
 x8 | x8 | x15/2 E,/ | x8 |] %16

